wp-content/themes/mre/assets/usa_flag.svg

<?xml version="1.0" encoding="UTF-8"?>
<svg width="60px" height="59px" viewBox="0 0 60 59" version="1.1" xmlns="http://www.w3.org/2000/svg" xmlns:xlink="http://www.w3.org/1999/xlink">
    <!-- Generator: Sketch 46.2 (44496) - http://www.bohemiancoding.com/sketch -->
    <title>d-unitedstates</title>
    <desc>Created with Sketch.</desc>
    <defs></defs>
    <g id="Home" stroke="none" stroke-width="1" fill="none" fill-rule="evenodd">
        <g id="MRE---Home-desktop-2" transform="translate(-690.000000, -2329.000000)" fill-rule="nonzero">
            <g id="d-unitedstates" transform="translate(690.000000, 2329.000000)">
                <ellipse id="Oval" fill="#F0F0F0" cx="29.5873932" cy="29.0859119" rx="29.5873932" ry="29.0859119"></ellipse>
                <g id="Group" transform="translate(0.924606, 6.248926)" fill="#D80027">
                    <path d="M27.376429,22.8369856 L58.2501803,22.8369856 C58.2501803,20.2117548 57.894207,17.6685553 57.2309178,15.2493119 L27.376429,15.2493119 L27.376429,22.8369856 Z" id="Shape"></path>
                    <path d="M27.376429,7.66175184 L53.9075369,7.66175184 C52.0963493,4.75634192 49.7805579,2.18826041 47.0804771,0.074078182 L27.376429,0.074078182 L27.376429,7.66175184 Z" id="Shape"></path>
                    <path d="M28.6627871,51.9228975 C35.6261108,51.9228975 42.0263494,49.5569403 47.0804771,45.5998929 L10.2450972,45.5998929 C15.2992249,49.5569403 21.6994635,51.9228975 28.6627871,51.9228975 Z" id="Shape"></path>
                    <path d="M3.41803737,38.0122193 L53.9075369,38.0122193 C55.3615955,35.6797791 56.4892681,33.1302171 57.2309178,30.4245456 L0.094656543,30.4245456 C0.836306161,33.1302171 1.9639788,35.6797791 3.41803737,38.0122193 Z" id="Shape"></path>
                </g>
                <path d="M13.7054353,4.54217417 L16.4017021,4.54217417 L13.8937082,6.33334371 L14.8517156,9.23159577 L12.3438373,7.44042623 L9.83595902,9.23159577 L10.6634814,6.72782139 C8.45529106,8.53603345 6.51985947,10.6545331 4.92491406,13.0150367 L5.78884282,13.0150367 L4.19239492,14.1551817 C3.9436759,14.5630662 3.70512754,14.9774268 3.4765187,15.3979227 L4.23885638,17.7044583 L2.81658114,16.6886101 C2.46303491,17.4249608 2.13965395,18.1778996 1.84898092,18.9465176 L2.68886993,21.4878992 L5.78884282,21.4878992 L3.28084895,23.2790687 L4.23885638,26.1773208 L1.73097808,24.3861512 L0.228724418,25.4591487 C0.0783603616,26.6473536 0,27.8576002 0,29.0859119 L29.5873932,29.0859119 C29.5873932,13.0223081 29.5873932,11.1285426 29.5873932,0 C23.7424961,0 18.2939083,1.66675909 13.7054353,4.54217417 Z M14.8517156,26.1773208 L12.3438373,24.3861512 L9.83595902,26.1773208 L10.7939665,23.2790687 L8.28597258,21.4878992 L11.3859455,21.4878992 L12.3438373,18.5896471 L13.3017292,21.4878992 L16.4017021,21.4878992 L13.8937082,23.2790687 L14.8517156,26.1773208 Z M13.8937082,14.8062062 L14.8517156,17.7044583 L12.3438373,15.9132887 L9.83595902,17.7044583 L10.7939665,14.8062062 L8.28597258,13.0150367 L11.3859455,13.0150367 L12.3438373,10.1167846 L13.3017292,13.0150367 L16.4017021,13.0150367 L13.8937082,14.8062062 Z M25.4645749,26.1773208 L22.9566966,24.3861512 L20.4488183,26.1773208 L21.4068257,23.2790687 L18.8988318,21.4878992 L21.9988047,21.4878992 L22.9566966,18.5896471 L23.9145884,21.4878992 L27.0145613,21.4878992 L24.5065674,23.2790687 L25.4645749,26.1773208 Z M24.5065674,14.8062062 L25.4645749,17.7044583 L22.9566966,15.9132887 L20.4488183,17.7044583 L21.4068257,14.8062062 L18.8988318,13.0150367 L21.9988047,13.0150367 L22.9566966,10.1167846 L23.9145884,13.0150367 L27.0145613,13.0150367 L24.5065674,14.8062062 Z M24.5065674,6.33334371 L25.4645749,9.23159577 L22.9566966,7.44042623 L20.4488183,9.23159577 L21.4068257,6.33334371 L18.8988318,4.54217417 L21.9988047,4.54217417 L22.9566966,1.64392211 L23.9145884,4.54217417 L27.0145613,4.54217417 L24.5065674,6.33334371 Z" id="Shape" fill="#0052B4"></path>
            </g>
        </g>
    </g>
</svg>

<svg xmlns="http://www.w3.org/2000/svg" width="68" height="67" viewBox="0 0 68 67">
    <defs>
        <filter id="a" width="126.7%" height="126.7%" x="-13.3%" y="-6.7%" filterUnits="objectBoundingBox">
            <feOffset dy="4" in="SourceAlpha" result="shadowOffsetOuter1"/>
            <feGaussianBlur in="shadowOffsetOuter1" result="shadowBlurOuter1" stdDeviation="2"/>
            <feColorMatrix in="shadowBlurOuter1" result="shadowMatrixOuter1" values="0 0 0 0 0 0 0 0 0 0 0 0 0 0 0 0 0 0 0.3 0"/>
            <feMerge>
                <feMergeNode in="shadowMatrixOuter1"/>
                <feMergeNode in="SourceGraphic"/>
            </feMerge>
        </filter>
    </defs>
    <g fill="none" fill-rule="nonzero" filter="url(#a)" transform="translate(4)">
        <ellipse cx="29.587" cy="29.086" fill="#F0F0F0" rx="29.587" ry="29.086"/>
        <g fill="#D80027">
            <path d="M28.301 29.086h30.874c0-2.625-.356-5.169-1.02-7.588H28.302v7.588zM28.301 13.91h26.531a29.405 29.405 0 0 0-6.827-7.587H28.301v7.588zM29.587 58.172c6.964 0 13.364-2.366 18.418-6.323H11.17c5.054 3.957 11.454 6.323 18.417 6.323zM4.343 44.261h50.49a28.658 28.658 0 0 0 3.323-7.588H1.019a28.658 28.658 0 0 0 3.324 7.588z"/>
        </g>
        <path fill="#0052B4" d="M13.705 4.542h2.697l-2.508 1.791.958 2.899-2.508-1.792-2.508 1.792.827-2.504a29.422 29.422 0 0 0-5.738 6.287h.864l-1.597 1.14c-.248.408-.487.822-.715 1.243l.762 2.306-1.422-1.015c-.354.736-.677 1.489-.968 2.258l.84 2.54h3.1L3.28 23.28l.958 2.898-2.508-1.79-1.502 1.072A28.875 28.875 0 0 0 0 29.086h29.587V0a29.819 29.819 0 0 0-15.882 4.542zm1.147 21.635l-2.508-1.79-2.508 1.79.958-2.898-2.508-1.791h3.1l.958-2.898.958 2.898h3.1l-2.508 1.791.958 2.898zm-.958-11.37l.958 2.897-2.508-1.79-2.508 1.79.958-2.898-2.508-1.791h3.1l.958-2.898.958 2.898h3.1l-2.508 1.791zm11.57 11.37l-2.507-1.79-2.508 1.79.958-2.898-2.508-1.791h3.1l.958-2.898.958 2.898h3.1l-2.508 1.791.958 2.898zm-.957-11.37l.958 2.897-2.508-1.79-2.508 1.79.958-2.898-2.508-1.791h3.1l.958-2.898.958 2.898h3.1l-2.508 1.791zm0-8.474l.958 2.899-2.508-1.792-2.508 1.792.958-2.899-2.508-1.79h3.1l.958-2.9.958 2.9h3.1l-2.508 1.79z"/>
    </g>
</svg>
